X: 30896
T: Over Across The Mountains
R: jig
M: 6/8
K: Dmajor
|:D|"D"DFA def|"G"dAG GFD|"Em"G2 C "A"CDE|"D"FGA "A"FEE|
"D"DFA "A"cde|"Bm"gfd "G"dcA|"D"A2 D "Bm"DEF|"A7"GEC "D"D2:|
|:A|"D"dcA "Bm"dcA|"A"GAc "D"dAF|"G"G2 G GFG|"D"AFD "A"E2 A|
"D"dcA "Bm"dcA|"G"GAc "D"daf|"A"gec "D"dAF|"A7"GAE "D"D2:|

